X: 118201
T: The MILLER OF DRONE
Q: "Strathspey."
R: Strathspey.
%R: strathspey
B: James Kerr "Merry Melodies" v.1 p.18 s.2 #1
Z: 2017 John Chambers <jc:trillian.mit.edu>
M: C
L: 1/16
K: A
(ucB3) |\
AF3 F3A vE3vFuE3uC | A,A,3 vd3uc cB3 B3uc |\
AF3 F3A vE3vFuE3uC | DF3 E3G A4- A2(cB) |\
AF3 F3A E3FE3C | A,A,3 d3c cB3 B2(cd) |
ve3vBuc3uG vA3vEuF3uC | D3FE3G A4-A2 |]\
(ucd) |\
vec3 vc3ua ve3ue fedc | ec3 c3a (gf3) (fa3) |\
ec3 c3a e3e fedc |
vd3vB (cA3) F4- F2cd |\
ec3 c3a e3e fedc | ec3 c3a (gf3) (f3g) |\
(3a2g2f2 (3e2f2g2 (3a2e2d2 (3c2B2A2 | vd3vB (cA3) F4-F2 |]

%%sep 1 1 500
%%sep 1 1 500

